src/img/price_icon.svg

<svg xmlns="http://www.w3.org/2000/svg" width="15" height="15" fill="none">
  <path stroke="#fff" stroke-linecap="round" stroke-linejoin="round" stroke-miterlimit="10" stroke-width=".6" d="M9.7 4.41997c1.701 0 3.08-.49249 3.08-1.1 0-.60751-1.379-1.1-3.08-1.1-1.70104 0-3.08.49249-3.08 1.1 0 .60751 1.37896 1.1 3.08 1.1Z"/>
  <path stroke="#fff" stroke-linecap="round" stroke-linejoin="round" stroke-miterlimit="10" stroke-width=".6" d="M6.62 3.54004v1.32c0 .60742 1.37852 1.1 3.08 1.1 1.7015 0 3.08-.49258 3.08-1.1v-1.32"/>
  <path stroke="#fff" stroke-linecap="round" stroke-linejoin="round" stroke-miterlimit="10" stroke-width=".6" d="M8.28101 7.37654c.4246.07876.90728.12342 1.419.12342 1.70149 0 3.07999-.49258 3.07999-1.1v-1.32m-6.16 0v.9394"/>
  <path stroke="#fff" stroke-linecap="round" stroke-linejoin="round" stroke-miterlimit="10" stroke-width=".6" d="M8.3855 8.93505c.39864.06732.84414.10494 1.3145.10494 1.7015 0 3.08-.49236 3.08-1.1V6.62"/>
  <path stroke="#fff" stroke-linecap="round" stroke-linejoin="round" stroke-miterlimit="10" stroke-width=".6" d="M8.36853 10.4722c.40282.0691.85448.1078 1.33144.1078 1.70153 0 3.08003-.4923 3.08003-1.09997v-1.32m-7.48003-.00007c1.70104 0 3.08-.49249 3.08-1.1 0-.60751-1.37896-1.1-3.08-1.1s-3.08.49249-3.08 1.1c0 .60751 1.37896 1.1 3.08 1.1Z"/>
  <path stroke="#fff" stroke-linecap="round" stroke-linejoin="round" stroke-miterlimit="10" stroke-width=".6" d="M2.21997 7.28003v1.32c0 .60764 1.37852 1.1 3.08 1.1s3.08-.49236 3.08-1.1v-1.32"/>
  <path stroke="#fff" stroke-linecap="round" stroke-linejoin="round" stroke-miterlimit="10" stroke-width=".6" d="M2.21997 8.81995v1.31995c0 .6077 1.37852 1.1 3.08 1.1s3.08-.4923 3.08-1.1V8.81995"/>
  <path stroke="#fff" stroke-linecap="round" stroke-linejoin="round" stroke-miterlimit="10" stroke-width=".6" d="M2.21997 10.36v1.32c0 .6076 1.37852 1.1 3.08 1.1s3.08-.4924 3.08-1.1v-1.32"/>
</svg>

<svg width="15" height="15" viewBox="0 0 15 15" fill="none" xmlns="http://www.w3.org/2000/svg">
<path d="M9.7 4.41997C11.401 4.41997 12.78 3.92748 12.78 3.31997C12.78 2.71246 11.401 2.21997 9.7 2.21997C7.99896 2.21997 6.62 2.71246 6.62 3.31997C6.62 3.92748 7.99896 4.41997 9.7 4.41997Z" stroke="white" stroke-width="0.6" stroke-miterlimit="10" stroke-linecap="round" stroke-linejoin="round"/>
<path d="M6.62 3.54004C6.62 3.74068 6.62 4.6594 6.62 4.86004C6.62 5.46746 7.99852 5.96004 9.7 5.96004C11.4015 5.96004 12.78 5.46746 12.78 4.86004C12.78 4.6594 12.78 3.74068 12.78 3.54004" stroke="white" stroke-width="0.6" stroke-miterlimit="10" stroke-linecap="round" stroke-linejoin="round"/>
<path d="M8.28101 7.37654C8.70561 7.4553 9.18829 7.49996 9.70001 7.49996C11.4015 7.49996 12.78 7.00738 12.78 6.39996C12.78 6.19932 12.78 5.2806 12.78 5.07996" stroke="white" stroke-width="0.6" stroke-miterlimit="10" stroke-linecap="round" stroke-linejoin="round"/>
<path d="M6.62 5.07996C6.62 5.2806 6.62 6.01936 6.62 6.01936" stroke="white" stroke-width="0.6" stroke-miterlimit="10" stroke-linecap="round" stroke-linejoin="round"/>
<path d="M8.3855 8.93505C8.78414 9.00237 9.22964 9.03999 9.7 9.03999C11.4015 9.03999 12.78 8.54763 12.78 7.93999C12.78 7.73935 12.78 6.82064 12.78 6.62" stroke="white" stroke-width="0.6" stroke-miterlimit="10" stroke-linecap="round" stroke-linejoin="round"/>
<path d="M8.36853 10.4722C8.77135 10.5413 9.22301 10.58 9.69997 10.58C11.4015 10.58 12.78 10.0877 12.78 9.48003C12.78 9.27939 12.78 8.36067 12.78 8.16003" stroke="white" stroke-width="0.6" stroke-miterlimit="10" stroke-linecap="round" stroke-linejoin="round"/>
<path d="M5.29997 8.15996C7.00101 8.15996 8.37997 7.66747 8.37997 7.05996C8.37997 6.45245 7.00101 5.95996 5.29997 5.95996C3.59893 5.95996 2.21997 6.45245 2.21997 7.05996C2.21997 7.66747 3.59893 8.15996 5.29997 8.15996Z" stroke="white" stroke-width="0.6" stroke-miterlimit="10" stroke-linecap="round" stroke-linejoin="round"/>
<path d="M2.21997 7.28003C2.21997 7.48067 2.21997 8.39939 2.21997 8.60003C2.21997 9.20767 3.59849 9.70003 5.29997 9.70003C7.00145 9.70003 8.37997 9.20767 8.37997 8.60003C8.37997 8.39939 8.37997 7.48067 8.37997 7.28003" stroke="white" stroke-width="0.6" stroke-miterlimit="10" stroke-linecap="round" stroke-linejoin="round"/>
<path d="M2.21997 8.81995C2.21997 9.02059 2.21997 9.93931 2.21997 10.1399C2.21997 10.7476 3.59849 11.2399 5.29997 11.2399C7.00145 11.2399 8.37997 10.7476 8.37997 10.1399C8.37997 9.93931 8.37997 9.02059 8.37997 8.81995" stroke="white" stroke-width="0.6" stroke-miterlimit="10" stroke-linecap="round" stroke-linejoin="round"/>
<path d="M2.21997 10.36C2.21997 10.5606 2.21997 11.4793 2.21997 11.68C2.21997 12.2876 3.59849 12.78 5.29997 12.78C7.00145 12.78 8.37997 12.2876 8.37997 11.68C8.37997 11.4793 8.37997 10.5606 8.37997 10.36" stroke="white" stroke-width="0.6" stroke-miterlimit="10" stroke-linecap="round" stroke-linejoin="round"/>
</svg>
